img/question-mark.svg

<?xml version="1.0" encoding="UTF-8"?>
<svg width="800px" height="1000px" viewBox="0 0 800 1000" version="1.1" xmlns="http://www.w3.org/2000/svg" xmlns:xlink="http://www.w3.org/1999/xlink">
    <!-- Generator: Sketch 51 (57462) - http://www.bohemiancoding.com/sketch -->
    <title>question_mark_DL</title>
    <desc>Created with Sketch.</desc>
    <defs></defs>
    <g id="question_mark_DL" stroke="none" stroke-width="1" fill="none" fill-rule="evenodd">
        <g id="logo-footer" transform="translate(441.000000, 685.000000)">
            <g>
                <path d="M110.812545,8.25651402 C110.904572,8.56348079 110.810146,8.81874549 110.573746,9.09365441 C110.548096,9.12348237 110.524607,9.14951827 110.482164,9.19539003 C110.410296,9.27306357 110.388406,9.29969141 110.394575,9.28699974 C110.158488,9.77253772 109.949286,10.3963755 109.78094,11.1092981 C109.323962,13.0450464 110.241419,14.6677006 112.137009,15.2172501 C114.194676,15.8138908 116.608374,14.6870388 117.500673,12.7424366 C118.556971,10.4412591 118.361229,8.87677042 116.832238,7.67717368 C114.960938,6.20902274 112.357851,6.27012948 111.072216,7.83985899 L110.795491,8.1777337 C110.794947,8.20051389 110.804056,8.228204 110.812545,8.25651402 Z M110.106083,6.26944954 C110.423589,5.88663707 110.955421,5.49967933 111.419965,5.30848582 C112.37958,4.91358991 113.68037,4.90617957 115.133698,5.23840657 C117.932917,5.87841333 120.108577,8.22064492 119.995807,10.6570534 C119.760531,15.7499925 113.426094,19.0246323 109.732148,15.5763745 C107.943744,13.9068501 107.553768,11.8021869 108.499361,9.2850154 C108.62423,8.95356867 108.851111,8.49010331 109.049811,8.18524994 C109.270059,7.84733807 109.481086,7.64146186 109.750777,7.55562368 C109.778602,7.54676715 109.806094,7.5393618 109.833231,7.53336632 C109.647627,7.16965375 109.747904,6.70130236 110.106083,6.26944954 Z" id="Fill-4" fill="#000000" fill-rule="nonzero"></path>
                <path d="M116,2.36382675 C116.035222,2.23410526 116.077249,2.03952302 116.14169,1.8509661 C116.280178,1.44230796 116.378641,1.03435869 116.377039,0.600890425 C116.376639,0.410561355 116.256963,0.110004457 116.623996,0.0412449782 C116.938196,-0.017590452 117.272408,-0.0501980398 117.512961,0.20711836 C117.655051,0.358460099 117.796741,0.518308165 117.8896,0.694814455 C118.216208,1.3175485 117.776729,2.53572545 117.114308,2.89086461 C116.612389,3.15987721 116.012808,2.911776 116,2.36382675" id="Fill-103" fill="#000000" fill-rule="nonzero"></path>
                <path d="M113.597281,1.30015424 C113.547641,1.6054057 113.484683,1.90995301 113.451993,2.21696486 C113.409214,2.61727733 113.068594,2.79366831 112.724342,2.93802021 C112.426905,3.06335991 112.146418,3.01090032 112.073774,2.6669203 C111.908307,1.88389925 112.059649,1.1040469 112.154086,0.329475719 C112.197269,-0.0278832593 112.773982,-0.106396611 113.167067,0.152380579 C113.512933,0.380527 113.619074,0.676272361 113.597281,1.30015424" id="Fill-107" fill="#000000" fill-rule="nonzero"></path>
                <path d="M112.19066,11.6823452 C110.632914,12.6206952 108.591708,13.9682577 107.051494,14.9237702 C106.603919,15.2015633 106.260092,15.3386205 105.847581,15.6483439 C105.453117,15.9444969 105.00264,16.1407116 104.673147,15.8744932 C104.334372,15.6006913 103.968388,15.4738054 104.253536,15.0032335 C104.507231,14.584149 104.804932,14.5525935 105.343775,14.3418539 C106.408054,13.9255633 108.032176,12.8044553 108.976827,12.2352987 C109.267132,12.0600815 109.780582,11.6912496 110.031699,11.4841022 C110.690685,10.9400907 110.546085,10.7856194 109.803565,10.2635599 C108.494872,9.34277154 106.87805,8.31351987 105.559045,7.40151231 C105.221301,7.16842154 104.87376,6.94291422 104.554064,6.69585398 C103.681603,6.022525 103.837029,5.29651112 105.037953,5.02270928 C105.314335,4.95964705 105.519044,5.02949445 105.664454,5.21269422 C106.875175,6.74015718 109.059218,7.93310366 110.770108,9.0590438 C111.354328,9.44340412 111.803432,9.85804585 112.62433,10.0292717 C113.067264,10.1214703 112.94712,10.4970498 112.994043,10.9392837 C113.057467,11.2214672 112.602656,11.4340876 112.19066,11.6823452 Z" id="chevron" fill="#000000" fill-rule="nonzero" transform="translate(108.500000, 10.500000) rotate(-2.000000) translate(-108.500000, -10.500000) "></path>
                <path d="M4.80555555,7.71270718 L2.78703703,7.71270718 L2.78703703,12.9005525 L2.01851852,12.9005525 L2.01851852,7.71270718 L0,7.71270718 L0,7.09944751 L4.80555555,7.09944751 L4.80555555,7.71270718 Z M9.97657951,10.2403315 L6.8654684,10.2403315 L6.8654684,12.9005525 L6.09694989,12.9005525 L6.09694989,7.09944751 L6.8654684,7.09944751 L6.8654684,9.62707182 L9.97657951,9.62707182 L9.97657951,7.09944751 L10.745098,7.09944751 L10.745098,12.9005525 L9.97657951,12.9005525 L9.97657951,10.2403315 Z M12.6568627,7.09944751 L16.1846405,7.09944751 L16.1846405,7.71270718 L13.4253813,7.71270718 L13.4253813,9.61049724 L15.953159,9.61049724 L15.953159,10.2237569 L13.4253813,10.2237569 L13.4253813,12.2872928 L16.2309368,12.2872928 L16.2309368,12.9005525 L12.6568627,12.9005525 L12.6568627,7.09944751 Z M20.7674291,7.09944751 C20.8847137,7.08287284 21.0158852,7.07044203 21.1609477,7.0621547 C21.3060102,7.05386736 21.4572432,7.04834254 21.6146514,7.04558011 C21.7720596,7.04281768 21.926379,7.04005525 22.0776143,7.03729282 C22.2288497,7.03453039 22.3692805,7.03314917 22.4989106,7.03314917 C23.0174317,7.03314917 23.4665011,7.10497164 23.8461328,7.24861878 C24.2257645,7.39226593 24.539033,7.59254015 24.7859476,7.84944751 C25.0328623,8.10635488 25.2165027,8.41436285 25.3368736,8.77348066 C25.4572445,9.13259848 25.5174291,9.52762215 25.5174291,9.95856354 C25.5174291,10.3508307 25.4603309,10.7278988 25.3461328,11.089779 C25.2319348,11.4516593 25.0513808,11.7720981 24.8044662,12.051105 C24.5575516,12.3301119 24.236567,12.5538666 23.8415032,12.7223757 C23.4464394,12.8908848 22.9680495,12.9751381 22.406318,12.9751381 C22.3075521,12.9751381 22.179467,12.9737569 22.0220588,12.9709945 C21.8646506,12.968232 21.7026152,12.9627072 21.5359477,12.9544199 C21.3692802,12.9461326 21.2149607,12.9392266 21.0729847,12.9337017 C20.9310087,12.9281767 20.8291578,12.9198895 20.7674291,12.9088398 L20.7674291,7.09944751 Z M22.5174291,7.64640884 L22.2535402,7.64640884 C22.1578608,7.64640884 22.0637259,7.64917122 21.9711328,7.65469613 C21.8785398,7.66022104 21.7936641,7.66574581 21.7165032,7.67127072 C21.6393424,7.67679563 21.5791578,7.6823204 21.5359477,7.6878453 L21.5359477,12.3287293 C21.566812,12.3342542 21.6254534,12.3383978 21.7118736,12.3411602 C21.7982938,12.3439227 21.887799,12.3466851 21.9803921,12.3494475 C22.0729851,12.3522099 22.1624904,12.3549724 22.2489106,12.3577348 C22.3353309,12.3604972 22.3939723,12.3618785 22.4248365,12.3618785 C22.8569374,12.3618785 23.2195881,12.2955808 23.5127995,12.1629834 C23.8060109,12.0303861 24.0405762,11.852211 24.2165032,11.628453 C24.3924302,11.404695 24.5174286,11.1477915 24.5915032,10.8577348 C24.6655778,10.5676781 24.7026143,10.2679574 24.7026143,9.95856354 C24.7026143,9.68784397 24.6686642,9.41574724 24.6007625,9.14226519 C24.5328607,8.86878315 24.4155783,8.62154807 24.2489106,8.40055249 C24.0822429,8.17955691 23.8584801,7.99861948 23.5776143,7.85773481 C23.2967486,7.71685014 22.9433571,7.64640884 22.5174291,7.64640884 Z M26.892157,10 C26.892157,9.03314434 27.1205495,8.29143904 27.5773422,7.77486188 C28.0341344,7.25828471 28.6853622,7 29.5310459,7 C29.9878381,7 30.3828957,7.07182247 30.7162311,7.21546961 C31.0495659,7.35911676 31.3257979,7.56215336 31.5449348,7.82458564 C31.7640716,8.08701791 31.9261071,8.40193186 32.0310459,8.76933702 C32.1359847,9.13674217 32.1884533,9.54695907 32.1884533,10 C32.1884533,10.9668557 31.9585171,11.708561 31.4986385,12.2251381 C31.0387594,12.7417153 30.3829019,13 29.5310459,13 C29.080426,13 28.6899981,12.9281775 28.3597496,12.7845304 C28.0295006,12.6408832 27.7548124,12.4378466 27.5356755,12.1754144 C27.3165387,11.9129821 27.1545032,11.5980681 27.0495644,11.230663 C26.9446256,10.8632578 26.892157,10.4530409 26.892157,10 Z M27.7069718,10 C27.7069718,10.3204436 27.7424651,10.624308 27.8134533,10.9116022 C27.884441,11.1988965 27.9940078,11.4516564 28.142157,11.6698895 C28.2903057,11.8881227 28.4801184,12.0621541 28.7116014,12.191989 C28.943084,12.3218238 29.2162295,12.3867403 29.5310459,12.3867403 C30.1051225,12.3867403 30.5557352,12.1919909 30.8828977,11.8024862 C31.2100598,11.4129815 31.3736385,10.8121587 31.3736385,10 C31.3736385,9.68508131 31.3381447,9.38259816 31.267157,9.09254144 C31.1961688,8.80248476 31.0850587,8.54834365 30.9338237,8.3301105 C30.7825881,8.11187735 30.5912321,7.93784595 30.3597496,7.80801105 C30.1282666,7.67817615 29.8520351,7.61325967 29.5310459,7.61325967 C28.9631416,7.61325967 28.5171585,7.80800912 28.1930829,8.19751381 C27.8690068,8.58701851 27.7069718,9.18784125 27.7069718,10 Z M33.5631807,10 C33.5631807,9.03314434 33.7915737,8.29143904 34.2483658,7.77486188 C34.7051585,7.25828471 35.3563864,7 36.2020695,7 C36.6588622,7 37.0539198,7.07182247 37.3872547,7.21546961 C37.7205896,7.35911676 37.9968216,7.56215336 38.2159584,7.82458564 C38.4350953,8.08701791 38.5971308,8.40193186 38.7020695,8.76933702 C38.8070083,9.13674217 38.8594769,9.54695907 38.8594769,10 C38.8594769,10.9668557 38.6295412,11.708561 38.1696621,12.2251381 C37.7097835,12.7417153 37.053926,13 36.2020695,13 C35.7514502,13 35.3610217,12.9281775 35.0307732,12.7845304 C34.7005248,12.6408832 34.425836,12.4378466 34.2066992,12.1754144 C33.9875623,11.9129821 33.8255268,11.5980681 33.7205881,11.230663 C33.6156493,10.8632578 33.5631807,10.4530409 33.5631807,10 Z M34.3779955,10 C34.3779955,10.3204436 34.4134893,10.624308 34.484477,10.9116022 C34.5554651,11.1988965 34.665032,11.4516564 34.8131807,11.6698895 C34.9613298,11.8881227 35.1511426,12.0621541 35.3826251,12.191989 C35.6141076,12.3218238 35.8872532,12.3867403 36.2020695,12.3867403 C36.7761467,12.3867403 37.2267594,12.1919909 37.5539214,11.8024862 C37.8810834,11.4129815 38.0446621,10.8121587 38.0446621,10 C38.0446621,9.68508131 38.0091688,9.38259816 37.9381806,9.09254144 C37.867193,8.80248476 37.7560829,8.54834365 37.6048473,8.3301105 C37.4536122,8.11187735 37.2622558,7.93784595 37.0307732,7.80801105 C36.7992907,7.67817615 36.5230587,7.61325967 36.2020695,7.61325967 C35.6341657,7.61325967 35.1881822,7.80800912 34.8641066,8.19751381 C34.540031,8.58701851 34.3779955,9.18784125 34.3779955,10 Z M40.5027233,7.09944751 C40.6200078,7.08287284 40.7511791,7.07044203 40.8962419,7.0621547 C41.0413041,7.05386736 41.1925371,7.04834254 41.3499456,7.04558011 C41.5073535,7.04281768 41.6616729,7.04005525 41.8129085,7.03729282 C41.9641436,7.03453039 42.1045747,7.03314917 42.2342048,7.03314917 C42.7527259,7.03314917 43.2017954,7.10497164 43.581427,7.24861878 C43.9610587,7.39226593 44.2743267,7.59254015 44.5212419,7.84944751 C44.7681565,8.10635488 44.9517969,8.41436285 45.0721678,8.77348066 C45.1925387,9.13259848 45.2527233,9.52762215 45.2527233,9.95856354 C45.2527233,10.3508307 45.1956251,10.7278988 45.081427,11.089779 C44.967229,11.4516593 44.786675,11.7720981 44.5397604,12.051105 C44.2928452,12.3301119 43.9718612,12.5538666 43.5767974,12.7223757 C43.1817336,12.8908848 42.7033432,12.9751381 42.1416122,12.9751381 C42.0428463,12.9751381 41.9147609,12.9737569 41.757353,12.9709945 C41.5999445,12.968232 41.437909,12.9627072 41.2712419,12.9544199 C41.1045742,12.9461326 40.9502547,12.9392266 40.8082789,12.9337017 C40.6663026,12.9281767 40.5644517,12.9198895 40.5027233,12.9088398 L40.5027233,7.09944751 Z M42.2527233,7.64640884 L41.9888344,7.64640884 C41.8931549,7.64640884 41.7990201,7.64917122 41.706427,7.65469613 C41.6138339,7.66022104 41.5289584,7.66574581 41.4517974,7.67127072 C41.3746364,7.67679563 41.3144517,7.6823204 41.2712419,7.6878453 L41.2712419,12.3287293 C41.3021061,12.3342542 41.3607475,12.3383978 41.4471678,12.3411602 C41.533588,12.3439227 41.6230932,12.3466851 41.7156863,12.3494475 C41.8082794,12.3522099 41.8977846,12.3549724 41.9842048,12.3577348 C42.0706251,12.3604972 42.1292665,12.3618785 42.1601307,12.3618785 C42.5922316,12.3618785 42.9548823,12.2955808 43.2480937,12.1629834 C43.5413051,12.0303861 43.7758705,11.852211 43.9517974,11.628453 C44.1277244,11.404695 44.2527228,11.1477915 44.3267974,10.8577348 C44.400872,10.5676781 44.4379085,10.2679574 44.4379085,9.95856354 C44.4379085,9.68784397 44.4039584,9.41574724 44.3360567,9.14226519 C44.2681549,8.86878315 44.150872,8.62154807 43.9842048,8.40055249 C43.8175371,8.17955691 43.5937743,7.99861948 43.3129085,7.85773481 C43.0320428,7.71685014 42.6786513,7.64640884 42.2527233,7.64640884 Z M50.7293025,12.9005525 L46.8959692,12.9005525 L46.8959692,7.09944751 L47.6644877,7.09944751 L47.6644877,12.2872928 L50.7293025,12.2872928 L50.7293025,12.9005525 Z M52.0206971,7.09944751 L55.5484749,7.09944751 L55.5484749,7.71270718 L52.7892156,7.71270718 L52.7892156,9.61049724 L55.3169934,9.61049724 L55.3169934,10.2237569 L52.7892156,10.2237569 L52.7892156,12.2872928 L55.5947712,12.2872928 L55.5947712,12.9005525 L52.0206971,12.9005525 L52.0206971,7.09944751 Z M63.9645968,12.9005525 L60.1312634,12.9005525 L60.1312634,7.09944751 L60.8997819,7.09944751 L60.8997819,12.2872928 L63.9645968,12.2872928 L63.9645968,12.9005525 Z M65.4319172,7.09944751 L66.2004357,7.09944751 L66.2004357,12.9005525 L65.4319172,12.9005525 L65.4319172,7.09944751 Z M72.1955335,8.42541436 C72.1955335,8.5635366 72.1708426,8.70441915 72.1214594,8.8480663 C72.0720767,8.99171344 71.9980031,9.12569001 71.8992372,9.25 C71.8004712,9.37431004 71.6739296,9.48342495 71.5196075,9.57734807 C71.365286,9.67127118 71.1831888,9.74309369 70.9733113,9.79281768 L70.9733113,9.82596685 C71.1584975,9.8535913 71.3359651,9.90055216 71.5057187,9.96685083 C71.6754728,10.0331495 71.8251626,10.1243088 71.9547927,10.2403315 C72.0844234,10.3563542 72.1893606,10.4972367 72.2696075,10.6629834 C72.349855,10.8287301 72.3899779,11.0248607 72.3899779,11.2513812 C72.3899779,11.5497252 72.3205345,11.8080099 72.1816446,12.0262431 C72.0427552,12.2444762 71.8606585,12.4226512 71.6353483,12.5607735 C71.4100386,12.6988957 71.1523251,12.8011047 70.8622001,12.8674033 C70.5720757,12.933702 70.2757819,12.9668508 69.9733113,12.9668508 L69.6029409,12.9668508 C69.4609651,12.9668508 69.3128185,12.9627072 69.1584964,12.9544199 C69.0041749,12.9461326 68.8498555,12.935083 68.6955335,12.9212707 C68.541212,12.9074585 68.4054111,12.8867405 68.2881261,12.859116 L68.2881261,7.14917127 C68.5165227,7.11602192 68.7819517,7.08839788 69.0844224,7.06629834 C69.386893,7.0441988 69.7171369,7.03314917 70.0751631,7.03314917 C70.3159054,7.03314917 70.5612732,7.05110479 70.8112742,7.08701657 C71.0612758,7.12292836 71.288125,7.19198844 71.4918298,7.2941989 C71.6955345,7.39640935 71.8637428,7.53867311 71.9964594,7.72099448 C72.1291765,7.90331584 72.1955335,8.13812012 72.1955335,8.42541436 Z M70.0473853,12.3701657 C70.2449172,12.3701657 70.4362737,12.3494477 70.6214594,12.308011 C70.8066456,12.2665744 70.9702243,12.2002767 71.1122001,12.109116 C71.2541765,12.0179553 71.3668298,11.906078 71.4501631,11.7734807 C71.533497,11.6408833 71.5751631,11.4834263 71.5751631,11.301105 C71.5751631,11.0745845 71.5242377,10.8922659 71.4223853,10.7541436 C71.320533,10.6160214 71.1878185,10.5082877 71.0242372,10.4309392 C70.8606564,10.3535908 70.677016,10.3011051 70.4733113,10.2734807 C70.2696065,10.2458562 70.0659049,10.2320442 69.8622001,10.2320442 L69.0566446,10.2320442 L69.0566446,12.3121547 C69.099855,12.3232045 69.1615829,12.3314917 69.2418298,12.3370166 C69.3220772,12.3425415 69.4084964,12.3480663 69.501089,12.3535912 C69.5936821,12.3591161 69.6893601,12.3632597 69.7881261,12.3660221 C69.886892,12.3687845 69.9733113,12.3701657 70.0473853,12.3701657 Z M69.5381261,9.6519337 C69.6430649,9.6519337 69.769607,9.64917132 69.9177557,9.64364641 C70.0659049,9.6381215 70.1893601,9.6298343 70.2881261,9.61878453 C70.4362752,9.57458541 70.5751626,9.52071855 70.7047927,9.45718232 C70.8344234,9.39364609 70.9501626,9.31906119 71.052015,9.23342541 C71.1538673,9.14778964 71.2341137,9.04834309 71.2927557,8.93508287 C71.3513982,8.82182265 71.3807187,8.69889567 71.3807187,8.56629834 C71.3807187,8.38397698 71.3421389,8.23342601 71.2649779,8.11464088 C71.1878174,7.99585576 71.0844234,7.90055285 70.9547927,7.82872928 C70.8251626,7.75690571 70.677016,7.70580124 70.5103483,7.67541436 C70.3436811,7.64502749 70.1739296,7.62983425 70.001089,7.62983425 C69.7973843,7.62983425 69.610658,7.63397785 69.4409038,7.64226519 C69.2711502,7.65055253 69.1430649,7.66298333 69.0566446,7.67955801 L69.0566446,9.6519337 L69.5381261,9.6519337 Z M74.0332243,7.15745856 C74.2677932,7.11878435 74.5378524,7.08839788 74.8434095,7.06629834 C75.1489666,7.0441988 75.428285,7.03314917 75.6813725,7.03314917 C75.9653246,7.03314917 76.2353838,7.0607732 76.4915576,7.1160221 C76.747732,7.17127099 76.9730381,7.26243029 77.1674836,7.38950276 C77.361929,7.51657523 77.5177917,7.68231943 77.6350762,7.88674033 C77.7523606,8.09116123 77.8110021,8.33977753 77.8110021,8.63259669 C77.8110021,9.08563762 77.6721147,9.45303725 77.3943354,9.73480663 C77.1165561,10.016576 76.7647078,10.2044194 76.3387799,10.2983425 L76.7832243,10.6049724 L78.3943354,12.9005525 L77.4961873,12.9005525 L75.7091502,10.3977901 L74.8017428,10.2734807 L74.8017428,12.9005525 L74.0332243,12.9005525 L74.0332243,7.15745856 Z M75.699891,7.62983425 L75.449891,7.62983425 C75.3634707,7.62983425 75.2801384,7.63259664 75.199891,7.63812155 C75.1196436,7.64364645 75.0440273,7.64917122 74.9730391,7.65469613 C74.902051,7.66022104 74.8449527,7.66850824 74.8017428,7.67955801 L74.8017428,9.81767956 L75.5239651,9.81767956 C75.949893,9.81767956 76.3017413,9.72375783 76.5795206,9.5359116 C76.8572999,9.34806538 76.9961873,9.0552506 76.9961873,8.65745856 C76.9961873,8.35911455 76.8819908,8.11326064 76.6535947,7.9198895 C76.4251986,7.72651837 76.1073004,7.62983425 75.699891,7.62983425 Z M82.722767,11.2928177 L80.3338781,11.2928177 L79.68573,12.9005525 L78.9264707,12.9005525 L81.3801744,7.00828729 L81.7320263,7.00828729 L84.1949892,12.9005525 L83.3894337,12.9005525 L82.722767,11.2928177 Z M80.5838781,10.6961326 L82.4912855,10.6961326 L81.7690633,8.93093923 L81.5375818,8.05248619 L81.5283226,8.05248619 L81.2968411,8.94751381 L80.5838781,10.6961326 Z M85.3937907,7.15745856 C85.6283596,7.11878435 85.8984187,7.08839788 86.2039758,7.06629834 C86.5095329,7.0441988 86.7888514,7.03314917 87.0419388,7.03314917 C87.325891,7.03314917 87.5959501,7.0607732 87.852124,7.1160221 C88.1082984,7.17127099 88.3336044,7.26243029 88.5280499,7.38950276 C88.7224954,7.51657523 88.878358,7.68231943 88.9956425,7.88674033 C89.112927,8.09116123 89.1715684,8.33977753 89.1715684,8.63259669 C89.1715684,9.08563762 89.0326811,9.45303725 88.7549018,9.73480663 C88.477123,10.016576 88.1252742,10.2044194 87.6993462,10.2983425 L88.1437906,10.6049724 L89.7549018,12.9005525 L88.8567536,12.9005525 L87.0697166,10.3977901 L86.1623092,10.2734807 L86.1623092,12.9005525 L85.3937907,12.9005525 L85.3937907,7.15745856 Z M87.0604573,7.62983425 L86.8104573,7.62983425 C86.7240371,7.62983425 86.6407047,7.63259664 86.5604573,7.63812155 C86.4802099,7.64364645 86.4045936,7.64917122 86.3336055,7.65469613 C86.2626178,7.66022104 86.2055196,7.66850824 86.1623092,7.67955801 L86.1623092,9.81767956 L86.8845314,9.81767956 C87.3104594,9.81767956 87.6623081,9.72375783 87.9400869,9.5359116 C88.2178663,9.34806538 88.3567536,9.0552506 88.3567536,8.65745856 C88.3567536,8.35911455 88.2425571,8.11326064 88.014161,7.9198895 C87.7857649,7.72651837 87.4678668,7.62983425 87.0604573,7.62983425 Z M92.1111111,10.5966851 L89.9722222,7.09944751 L90.8703704,7.09944751 L92.3888889,9.63535912 L92.5462963,10.140884 L92.5555556,10.140884 L92.7222222,9.61878453 L94.1759259,7.09944751 L95,7.09944751 L92.8796296,10.5883978 L92.8796296,12.9005525 L92.1111111,12.9005525 L92.1111111,10.5966851 Z" id="the-Doodle-Library" fill="#666666" fill-rule="nonzero" opacity="0.595278533"></path>
            </g>
        </g>
        <g id="questionmark" transform="translate(262.000000, 210.000000)" fill="#000000">
            <path d="M148.917955,220.776936 C172.403367,220.999266 191.413515,207.159177 212.564006,199.822262 C224.102407,195.820308 234.687381,188.27959 247.782396,189.354189 C263.367993,190.614063 273.855679,197.617482 276.307346,213.477076 C278.350401,226.816921 274.789647,237.266467 260.605003,241.898357 C219.549311,255.330841 178.785484,269.85645 137.009859,280.917405 C118.135915,285.919847 93.3079232,288.736036 80.7577236,270.653135 C67.7016245,251.866186 68.265897,228.65115 80.855012,207.585311 C100.079194,175.402934 119.225545,143.257613 145.201539,115.243937 C158.238181,101.125934 172.870352,87.8416719 182.735392,67.0352187 C145.61015,65.3121554 113.757938,70.8333691 84.8049198,90.1576173 C69.6668495,100.255139 54.723356,111.760756 35.2851399,113.502347 C23.0268053,114.595473 9.40643366,116.225898 3.21889338,102.107895 C-2.09305158,90.0093967 0.455903693,77.9664809 10.5349787,69.4623295 C50.6177868,35.7236374 94.514299,8.02493091 149.190362,1.79966977 C169.11502,-0.460692901 189.740155,-0.108669206 209.742643,1.79966977 C244.143811,5.07904841 255.682211,19.6417128 253.775359,51.935255 C252.277118,76.9474649 239.435054,96.4940438 223.07115,114.984552 C197.990208,143.239085 171.683433,170.622823 151.661487,202.638452 C148.528802,207.622366 145.53232,212.643336 148.917955,220.776936" id="Fill-315"></path>
            <path d="M147.151198,405.943252 C146.528553,424.915477 131.740721,440.867708 113.820203,441.942307 C100.355493,442.738992 83.6413509,427.009091 84.0694197,413.910104 C84.5753192,397.494683 107.224052,373.964679 122.031341,375.446884 C140.905285,377.318167 148.085167,388.823784 147.151198,405.943252" id="Fill-609"></path>
        </g>
    </g>
</svg>

<?xml version="1.0" encoding="utf-8"?>
<!-- Generator: Adobe Illustrator 16.0.0, SVG Export Plug-In . SVG Version: 6.00 Build 0)  -->
<!DOCTYPE svg PUBLIC "-//W3C//DTD SVG 1.1//EN" "http://www.w3.org/Graphics/SVG/1.1/DTD/svg11.dtd">
<svg version="1.1" id="Layer_1" xmlns="http://www.w3.org/2000/svg" xmlns:xlink="http://www.w3.org/1999/xlink" x="0px" y="0px"
	 width="800px" height="1000px" viewBox="0 0 800 1000" enable-background="new 0 0 800 1000" xml:space="preserve">
<title>question_mark_DL</title>
<desc>Created with Sketch.</desc>
<g id="question_mark_DL">
	<g id="questionmark" transform="translate(262.000000, 210.000000)">
		<path id="Fill-315" d="M148.918,220.777c23.485,0.222,42.495-13.618,63.646-20.955c11.538-4.002,22.123-11.543,35.218-10.468
			c15.586,1.26,26.073,8.263,28.525,24.123c2.043,13.34-1.518,23.789-15.702,28.421c-41.057,13.433-81.82,27.958-123.596,39.019
			c-18.874,5.003-43.702,7.819-56.252-10.264c-13.057-18.787-12.492-42.002,0.098-63.068c19.224-32.182,38.37-64.327,64.346-92.341
			c13.037-14.118,27.669-27.402,37.534-48.209c-37.125-1.723-68.978,3.798-97.931,23.123c-15.138,10.097-30.081,21.603-49.52,23.345
			c-12.258,1.093-25.879,2.724-32.066-11.395c-5.312-12.099-2.763-24.142,7.316-32.646C50.618,35.724,94.515,8.025,149.19,1.8
			c19.925-2.261,40.55-1.908,60.552,0c34.401,3.279,45.94,17.842,44.033,50.135c-1.498,25.012-14.34,44.559-30.704,63.049
			c-25.081,28.255-51.388,55.639-71.41,87.654C148.529,207.622,145.532,212.644,148.918,220.777"/>
		<path id="Fill-609" d="M147.151,405.943c-0.623,18.972-15.411,34.925-33.331,35.999c-13.465,0.797-30.179-14.934-29.751-28.032
			c0.506-16.415,23.154-39.945,37.962-38.463C140.905,377.318,148.085,388.824,147.151,405.943"/>
	</g>
</g>
</svg>
